public/svg/plang_2.svg

<svg viewBox="0 0 112 59" fill="none" xmlns="http://www.w3.org/2000/svg">
<path d="M0.700195 53.1764H4.36365V38.7098L10.0351 51.3213C10.7043 52.8478 11.6203 53.3878 13.4167 53.3878C15.2133 53.3878 16.0939 52.8478 16.7634 51.3213L22.4346 38.7098V53.1764H26.0984V38.7335C26.0984 37.3245 25.5345 36.6433 24.3722 36.2913C21.5894 35.4223 19.7223 36.1737 18.8767 38.0526L13.3111 50.4991L7.92152 38.0526C7.11136 36.1737 5.20915 35.4223 2.42633 36.2913C1.26378 36.6433 0.700195 37.3245 0.700195 38.7335V53.1764Z" fill="#00618A"/>
<path d="M29.1445 41.4011H32.8069V49.3711C32.7727 49.8042 32.9458 50.8203 34.9527 50.852C35.9766 50.868 42.8549 50.852 42.9191 50.852V41.3623H46.59C46.6068 41.3623 46.5863 54.3035 46.5866 54.3586C46.6068 57.5503 42.6264 58.2435 40.7918 58.2971H29.2241V55.8326C29.2444 55.8326 40.7832 55.8349 40.8123 55.832C43.1701 55.583 42.8917 54.4111 42.8914 54.0166V53.0557H35.1048C31.4821 53.0224 29.1751 51.4414 29.1465 49.6225C29.144 49.4539 29.2247 41.4807 29.1445 41.4011Z" fill="#00618A"/>
<path d="M49.4131 53.1761H59.9455C61.1784 53.1761 62.3763 52.918 63.3274 52.4715C64.9124 51.7438 65.6875 50.7576 65.6875 49.4656V46.7885C65.6875 45.7316 64.8068 44.7451 63.0806 44.0878C62.1646 43.7352 61.0375 43.5475 59.9455 43.5475H55.5069C54.0277 43.5475 53.3231 43.1014 53.1471 42.1152C53.1117 41.9976 53.1117 41.9035 53.1117 41.7862V40.1191C53.1117 40.0249 53.1117 39.9308 53.1471 39.8136C53.3231 39.0621 53.7108 38.8505 55.0139 38.7332C55.1197 38.7332 55.2604 38.7095 55.3662 38.7095H65.8284V36.2676H55.5422C54.0628 36.2676 53.2877 36.3614 52.5834 36.5725C50.3993 37.2538 49.4482 38.3341 49.4482 40.2129V42.3499C49.4482 43.994 51.3153 45.403 54.4502 45.7316C54.8028 45.755 55.1548 45.7784 55.5069 45.7784H59.3113C59.4525 45.7784 59.5934 45.7784 59.699 45.8021C60.8615 45.8962 61.3544 46.1073 61.707 46.5301C61.9181 46.7412 61.9886 46.9529 61.9886 47.1876V49.3246C61.9886 49.5831 61.8126 49.912 61.4606 50.1936C61.1433 50.4754 60.615 50.6634 59.9104 50.7105C59.7694 50.7105 59.6639 50.7339 59.523 50.7339H49.4131V53.1761Z" fill="#E48E00"/>
<path d="M88.542 48.9255C88.542 51.4382 90.4088 52.8475 94.1782 53.1294C94.5302 53.1527 94.8828 53.1761 95.2348 53.1761H104.781V50.7339H95.1644C93.0157 50.7339 92.2055 50.1936 92.2055 48.9021V36.2676H88.542V48.9255Z" fill="#E48E00"/>
<path d="M68.0254 49.0538V40.3466C68.0254 38.1346 69.5787 36.7929 72.6494 36.3693C72.9672 36.3225 73.3204 36.2988 73.6379 36.2988H80.5918C80.9447 36.2988 81.2627 36.3225 81.6156 36.3693C84.6866 36.7929 86.2397 38.1346 86.2397 40.3466V49.0538C86.2397 50.8484 85.5801 51.809 84.0599 52.4349L87.6686 55.6921H83.4149L80.4954 53.0568L77.5562 53.243H73.6379C72.9672 53.243 72.2614 53.1486 71.4846 52.9369C69.1551 52.3016 68.0254 51.0778 68.0254 49.0538ZM71.9796 48.8421C71.9796 48.9599 72.0147 49.0775 72.0501 49.2187C72.2617 50.2305 73.2148 50.7954 74.662 50.7954H77.9903L74.9331 48.0353H79.1868L81.8533 50.4425C82.3445 50.1806 82.668 49.7801 82.781 49.2657C82.8161 49.1482 82.8161 49.0304 82.8161 48.9129V40.5586C82.8161 40.4644 82.8161 40.3466 82.781 40.2288C82.569 39.2877 81.6159 38.7465 80.2041 38.7465H74.662C73.0385 38.7465 71.9796 39.4525 71.9796 40.5586V48.8421Z" fill="#E48E00"/>
<path d="M108.004 32.2163C105.752 32.1552 104.031 32.3646 102.561 32.9848C102.143 33.1611 101.476 33.1657 101.408 33.6894C101.638 33.9302 101.674 34.2897 101.856 34.5858C102.207 35.154 102.8 35.9154 103.329 36.3148C103.907 36.751 104.503 37.2177 105.122 37.5954C106.224 38.2675 107.455 38.6512 108.516 39.3245C109.141 39.7213 109.763 40.2211 110.373 40.669C110.674 40.8904 110.877 41.2347 111.269 41.3733C111.269 41.3522 111.269 41.3308 111.269 41.3094C111.063 41.0473 111.01 40.6867 110.821 40.4128C110.544 40.1355 110.266 39.858 109.988 39.5804C109.175 38.5 108.141 37.5512 107.043 36.763C106.167 36.1343 104.207 35.285 103.841 34.2657C103.82 34.2443 103.799 34.2229 103.777 34.2015C104.398 34.1316 105.125 33.9068 105.698 33.7533C106.661 33.4952 107.522 33.5619 108.516 33.3052C108.964 33.1771 109.412 33.0487 109.861 32.9209C109.861 32.8353 109.861 32.7503 109.861 32.6647C109.358 32.149 109 31.4666 108.452 30.9999C107.018 29.7789 105.453 28.559 103.841 27.5419C102.948 26.9777 101.843 26.6111 100.896 26.133C100.577 25.9723 100.018 25.8887 99.807 25.6207C99.3095 24.9863 99.0385 24.1824 98.6548 23.4435C97.8509 21.8957 97.0615 20.2052 96.3494 18.5769C95.8636 17.4664 95.5464 16.3713 94.9408 15.375C92.0332 10.5947 88.9035 7.70934 84.0552 4.87331C83.0237 4.27018 81.7816 4.03197 80.469 3.72079C79.765 3.67817 79.0603 3.63527 78.356 3.59265C77.9261 3.41295 77.4788 2.88696 77.0754 2.63207C75.4693 1.61744 71.3496 -0.589548 70.16 2.31196C69.4089 4.1434 71.2826 5.93057 71.9527 6.85854C72.4231 7.50959 73.0253 8.2395 73.3614 8.97163C73.5825 9.45278 73.6207 9.93529 73.8098 10.4445C74.2754 11.6988 74.6802 13.0633 75.2824 14.2225C75.5868 14.8089 75.9223 15.4268 76.3071 15.9514C76.5431 16.2732 76.9473 16.415 77.0112 16.912C76.6158 17.4653 76.5933 18.3242 76.371 19.0251C75.3703 22.1807 75.7477 26.1029 77.2035 28.4384C77.6502 29.1553 78.7023 30.6929 80.1489 30.1032C81.4144 29.5877 81.1317 27.9905 81.4937 26.5813C81.5756 26.2617 81.5254 26.0269 81.6857 25.8129C81.6857 25.8341 81.6857 25.8555 81.6857 25.877C82.07 26.6454 82.4543 27.4137 82.8385 28.1819C83.6915 29.5558 85.2054 30.9916 86.4883 31.9604C87.1536 32.4628 87.6774 33.3314 88.5375 33.6253C88.5375 33.6039 88.5375 33.5827 88.5375 33.5611C88.5158 33.5611 88.4947 33.5611 88.4733 33.5611C88.3067 33.3012 88.0459 33.1936 87.8331 32.9848C87.3319 32.4936 86.7747 31.8828 86.3602 31.3199C85.1935 29.7358 84.1622 28.0019 83.2228 26.1971C82.774 25.3354 82.3841 24.3846 82.0058 23.5076C81.86 23.1694 81.8617 22.6582 81.5579 22.483C81.1437 23.1257 80.5335 23.6452 80.2131 24.4041C79.7008 25.6171 79.6346 27.0964 79.4449 28.6304C79.3325 28.6706 79.3824 28.6429 79.3165 28.6943C78.4247 28.4792 78.1112 27.5611 77.78 26.7735C76.9416 24.7816 76.7858 21.5742 77.5236 19.2814C77.7144 18.6883 78.5771 16.8198 78.2279 16.2718C78.0613 15.7249 77.5113 15.4087 77.2035 14.9909C76.8226 14.4743 76.4424 13.7943 76.1788 13.1978C75.4927 11.6447 75.1723 9.90129 74.45 8.33144C74.1048 7.58091 73.5209 6.82148 73.0413 6.15428C72.5104 5.41519 71.9159 4.8708 71.5045 3.97683C71.3582 3.65923 71.1593 3.15078 71.3764 2.82429C71.4455 2.60391 71.5428 2.512 71.7607 2.44011C72.1321 2.15372 73.1665 2.53539 73.5534 2.69614C74.5804 3.12266 75.4373 3.52883 76.3071 4.10497C76.7248 4.38189 77.147 4.91732 77.6516 5.06555C77.8436 5.06555 78.0359 5.06555 78.2279 5.06555C79.1294 5.27281 80.1392 5.12991 80.9814 5.38563C82.4699 5.83808 83.8039 6.5418 85.0155 7.30679C88.7063 9.63721 91.724 12.9546 93.7882 16.912C94.1203 17.5491 94.2641 18.1573 94.5565 18.8331C95.1467 20.196 95.8902 21.5984 96.4773 22.9312C97.0632 24.2609 97.6343 25.6029 98.4625 26.7094C98.8981 27.2911 100.58 27.6031 101.344 27.926C101.88 28.1525 102.758 28.3885 103.265 28.6943C104.234 29.2791 105.174 29.9752 106.083 30.6156C106.537 30.9357 107.934 31.6377 108.004 32.2163Z" fill="#00618A"/>
<path fill-rule="evenodd" clip-rule="evenodd" d="M79.3803 7.81919C78.9108 7.81055 78.5787 7.87045 78.2275 7.94708C78.2275 7.9685 78.2275 7.98996 78.2275 8.01115C78.2489 8.01115 78.2703 8.01115 78.2917 8.01115C78.5157 8.47136 78.9111 8.7675 79.1881 9.16395C79.4014 9.6122 79.6148 10.0605 79.8285 10.5084C79.8496 10.4872 79.8713 10.4658 79.8924 10.4446C80.2889 10.1652 80.4707 9.71807 80.4687 9.0358C80.3098 8.86863 80.2864 8.65887 80.1486 8.45938C79.9654 8.19361 79.6111 8.04262 79.3803 7.81919Z" fill="#00618A"/>
<path fill-rule="evenodd" clip-rule="evenodd" d="M106.5 50.6644C106.5 52.2774 107.774 53.3643 109.2 53.3643C110.625 53.3643 111.9 52.2774 111.9 50.6644C111.9 49.0517 110.625 47.9648 109.2 47.9648C107.774 47.9648 106.5 49.0517 106.5 50.6644ZM111.295 50.6644C111.295 51.8882 110.359 52.8028 109.2 52.8028C108.027 52.8028 107.105 51.8882 107.105 50.6644C107.105 49.4406 108.027 48.526 109.2 48.526C110.359 48.526 111.295 49.4406 111.295 50.6644ZM109.927 52.2052H110.532L109.647 50.8518C110.122 50.8013 110.481 50.5708 110.481 50.0094C110.481 49.3829 110.086 49.1239 109.323 49.1239H108.12V52.2052H108.638V50.8732H109.121L109.927 52.2052ZM108.638 50.4413V49.5558H109.236C109.546 49.5558 109.92 49.6135 109.92 49.9735C109.92 50.4051 109.582 50.4413 109.193 50.4413H108.638Z" fill="#E48E00"/>
</svg>

<svg xmlns="http://www.w3.org/2000/svg" viewBox="0 0 112 59" fill="none"  xmlns:v="https://vecta.io/nano"><path d="M.7 53.176h3.663V38.71l5.671 12.612c.669 1.526 1.585 2.066 3.382 2.066s2.677-.54 3.347-2.066l5.671-12.611v14.467h3.664V38.734c0-1.409-.564-2.09-1.726-2.442-2.783-.869-4.65-.118-5.495 1.761L13.311 50.5l-5.39-12.446c-.81-1.879-2.712-2.63-5.495-1.761C1.264 36.643.7 37.325.7 38.734v14.443zm28.445-11.775h3.662v7.97c-.034.433.139 1.449 2.146 1.481h7.966v-9.49h3.671c.017 0-.004 12.941-.003 12.996.02 3.192-3.96 3.885-5.795 3.938H29.224v-2.465l11.588-.001c2.358-.249 2.079-1.421 2.079-1.815v-.961h-7.787c-3.623-.033-5.93-1.614-5.958-3.433-.003-.169.078-8.142-.002-8.221z" fill="#00618a"/><path d="M49.413 53.176h10.532c1.233 0 2.431-.258 3.382-.705 1.585-.728 2.36-1.714 2.36-3.006v-2.677c0-1.057-.881-2.043-2.607-2.701-.916-.353-2.043-.54-3.135-.54h-4.439c-1.479 0-2.184-.446-2.36-1.432-.035-.118-.035-.212-.035-.329v-1.667c0-.094 0-.188.035-.306.176-.751.564-.963 1.867-1.08.106 0 .246-.024.352-.024h10.462v-2.442H55.542c-1.479 0-2.254.094-2.959.305-2.184.681-3.135 1.762-3.135 3.64v2.137c0 1.644 1.867 3.053 5.002 3.382l1.057.047h3.804c.141 0 .282 0 .388.024 1.163.094 1.655.305 2.008.728.211.211.282.423.282.658v2.137c0 .259-.176.587-.528.869-.317.282-.846.47-1.55.517-.141 0-.247.023-.387.023h-10.11v2.442zm39.129-4.25c0 2.513 1.867 3.922 5.636 4.204l1.057.047h9.546v-2.442h-9.617c-2.149 0-2.959-.54-2.959-1.832V36.268h-3.663v12.658zm-20.517.128v-8.707c0-2.212 1.553-3.554 4.624-3.977a7 7 0 0 1 .989-.071h6.954a7.5 7.5 0 0 1 1.024.071c3.071.424 4.624 1.765 4.624 3.977v8.707c0 1.795-.66 2.755-2.18 3.381l3.609 3.257h-4.254l-2.919-2.635-2.939.186h-3.918c-.671 0-1.377-.094-2.153-.306-2.329-.635-3.459-1.859-3.459-3.883zm3.954-.212c0 .118.035.235.07.377.212 1.012 1.165 1.577 2.612 1.577h3.328l-3.057-2.76h4.254l2.666 2.407c.491-.262.815-.662.928-1.177.035-.117.035-.235.035-.353v-8.354c0-.094 0-.212-.035-.33-.212-.941-1.165-1.482-2.577-1.482h-5.542c-1.624 0-2.682.706-2.682 1.812v8.284z" fill="#e48e00"/><g fill="#00618a"><path d="M108.004 32.216c-2.252-.061-3.973.148-5.443.769-.418.176-1.085.181-1.153.705.23.241.266.6.448.896.351.568.944 1.33 1.473 1.729l1.793 1.281c1.102.672 2.333 1.056 3.394 1.729.625.397 1.247.897 1.857 1.344.301.221.504.566.896.704v-.064c-.206-.262-.259-.623-.448-.897l-.833-.832c-.813-1.08-1.847-2.029-2.945-2.817-.876-.629-2.836-1.478-3.202-2.497l-.064-.064c.621-.07 1.348-.295 1.921-.448.963-.258 1.824-.191 2.818-.448l1.345-.384v-.256c-.503-.516-.861-1.198-1.409-1.665-1.434-1.221-2.999-2.441-4.611-3.458-.893-.564-1.998-.931-2.945-1.409-.319-.161-.878-.244-1.089-.512-.498-.634-.769-1.438-1.152-2.177l-2.305-4.867c-.486-1.11-.803-2.206-1.409-3.202-2.908-4.78-6.037-7.666-10.886-10.502-1.031-.603-2.274-.841-3.586-1.153l-2.113-.128c-.43-.18-.877-.706-1.281-.961-1.606-1.015-5.726-3.222-6.915-.32-.751 1.831 1.123 3.619 1.793 4.547.47.651 1.073 1.381 1.409 2.113.221.481.259.964.448 1.473.466 1.254.87 2.619 1.473 3.778.304.586.64 1.204 1.025 1.729.236.322.64.464.704.961-.395.553-.418 1.412-.64 2.113-1.001 3.156-.623 7.078.833 9.413.447.717 1.499 2.255 2.945 1.665 1.266-.515.983-2.113 1.345-3.522.082-.32.032-.554.192-.768v.064l1.153 2.305c.853 1.374 2.367 2.81 3.65 3.779.665.502 1.189 1.371 2.049 1.665v-.064h-.064c-.167-.26-.427-.367-.64-.576a14.67 14.67 0 0 1-1.473-1.665c-1.167-1.584-2.198-3.318-3.137-5.123-.449-.862-.839-1.812-1.217-2.689-.146-.338-.144-.849-.448-1.025-.414.643-1.024 1.162-1.345 1.921-.512 1.213-.578 2.692-.768 4.226-.112.04-.062.012-.128.064-.892-.215-1.205-1.133-1.537-1.921-.838-1.992-.994-5.199-.256-7.492.191-.593 1.053-2.462.704-3.01-.167-.547-.717-.863-1.024-1.281-.381-.517-.761-1.197-1.025-1.793-.686-1.553-1.006-3.297-1.729-4.866-.345-.751-.929-1.51-1.409-2.177-.531-.739-1.125-1.283-1.537-2.177-.146-.318-.345-.826-.128-1.153.069-.22.166-.312.384-.384.371-.286 1.406.095 1.793.256 1.027.427 1.884.833 2.754 1.409.418.277.84.812 1.344.961h.576c.901.207 1.911.064 2.753.32 1.489.452 2.823 1.156 4.034 1.921 3.691 2.33 6.709 5.648 8.773 9.605.332.637.476 1.245.768 1.921.59 1.363 1.334 2.765 1.921 4.098s1.157 2.672 1.985 3.778c.436.582 2.117.894 2.881 1.217.536.227 1.414.463 1.921.768.969.585 1.909 1.281 2.818 1.921.454.32 1.851 1.022 1.921 1.601z"/><path d="M79.38 7.819a4.58 4.58 0 0 0-1.153.128v.064h.064c.224.46.619.756.896 1.153l.64 1.344.064-.064c.397-.279.578-.727.576-1.409-.159-.167-.182-.377-.32-.576-.183-.266-.538-.417-.768-.64z" fill-rule="evenodd"/></g><path fill-rule="evenodd" d="M106.5 50.664c0 1.613 1.274 2.7 2.7 2.7s2.7-1.087 2.7-2.7-1.275-2.7-2.7-2.7-2.7 1.087-2.7 2.7zm4.795 0c0 1.224-.936 2.138-2.095 2.138-1.173 0-2.095-.915-2.095-2.138s.922-2.138 2.095-2.138c1.159 0 2.095.915 2.095 2.138zm-1.368 1.541h.605l-.885-1.353c.475-.05.834-.281.834-.842 0-.626-.395-.886-1.158-.886h-1.203v3.081h.518v-1.332h.483l.806 1.332zm-1.289-1.764v-.886h.598c.31 0 .684.058.684.418 0 .432-.338.468-.727.468h-.555z" fill="#e48e00"/></svg>
